Desktop/project_createx/public/images/Services/website.svg

<svg width="48" height="48" viewBox="0 0 48 48" fill="none" xmlns="http://www.w3.org/2000/svg">
<g clip-path="url(#clip0_16317_1100)">
<path d="M43.7812 0H4.21875C1.89253 0 0 1.89253 0 4.21875V47.0625C0 47.5803 0.419719 48 0.9375 48H47.0625C47.5803 48 48 47.5803 48 47.0625V4.21875C48 1.89253 46.1075 0 43.7812 0ZM46.125 46.125H1.875V10.875H37.7812C38.299 10.875 38.7188 10.4553 38.7188 9.9375C38.7188 9.41972 38.299 9 37.7812 9H1.875V4.21875C1.875 2.92641 2.92641 1.875 4.21875 1.875H43.7812C45.0736 1.875 46.125 2.92641 46.125 4.21875V46.125Z" fill="#7772F1"/>
<path d="M7.875 2.625C6.32419 2.625 5.0625 3.88669 5.0625 5.4375C5.0625 6.98831 6.32419 8.25 7.875 8.25C9.42581 8.25 10.6875 6.98831 10.6875 5.4375C10.6875 3.88669 9.42581 2.625 7.875 2.625ZM7.875 6.375C7.35806 6.375 6.9375 5.95444 6.9375 5.4375C6.9375 4.92056 7.35806 4.5 7.875 4.5C8.39194 4.5 8.8125 4.92056 8.8125 5.4375C8.8125 5.95444 8.39194 6.375 7.875 6.375Z" fill="#7772F1"/>
<path d="M15.0742 2.625C13.5234 2.625 12.2617 3.88669 12.2617 5.4375C12.2617 6.98831 13.5234 8.25 15.0742 8.25C16.625 8.25 17.8867 6.98831 17.8867 5.4375C17.8867 3.88669 16.625 2.625 15.0742 2.625ZM15.0742 6.375C14.5573 6.375 14.1367 5.95444 14.1367 5.4375C14.1367 4.92056 14.5573 4.5 15.0742 4.5C15.5912 4.5 16.0117 4.92056 16.0117 5.4375C16.0117 5.95444 15.5912 6.375 15.0742 6.375Z" fill="#7772F1"/>
<path d="M22.2734 2.625C20.7226 2.625 19.4609 3.88669 19.4609 5.4375C19.4609 6.98831 20.7226 8.25 22.2734 8.25C23.8242 8.25 25.0859 6.98831 25.0859 5.4375C25.0859 3.88669 23.8242 2.625 22.2734 2.625ZM22.2734 6.375C21.7565 6.375 21.3359 5.95444 21.3359 5.4375C21.3359 4.92056 21.7565 4.5 22.2734 4.5C22.7904 4.5 23.2109 4.92056 23.2109 5.4375C23.2109 5.95444 22.7904 6.375 22.2734 6.375Z" fill="#7772F1"/>
<path d="M42 13.3672H28.4062C27.8885 13.3672 27.4688 13.7869 27.4688 14.3047C27.4688 14.8225 27.8885 15.2422 28.4062 15.2422H41.0625V26.1172H6.9375V15.2422H19.6875C20.2053 15.2422 20.625 14.8225 20.625 14.3047C20.625 13.7869 20.2053 13.3672 19.6875 13.3672H6C5.48222 13.3672 5.0625 13.7869 5.0625 14.3047V27.0547C5.0625 27.5725 5.48222 27.9922 6 27.9922H42C42.5178 27.9922 42.9375 27.5725 42.9375 27.0547V14.3047C42.9375 13.787 42.5178 13.3672 42 13.3672Z" fill="#7772F1"/>
<path d="M15.75 31.3125H6C5.48222 31.3125 5.0625 31.7322 5.0625 32.25V42C5.0625 42.5178 5.48222 42.9375 6 42.9375H15.75C16.2678 42.9375 16.6875 42.5178 16.6875 42V32.25C16.6875 31.7322 16.2678 31.3125 15.75 31.3125ZM14.8125 41.0625H6.9375V33.1875H14.8125V41.0625Z" fill="#7772F1"/>
<path d="M28.875 31.3125H19.125C18.6072 31.3125 18.1875 31.7322 18.1875 32.25V42C18.1875 42.5178 18.6072 42.9375 19.125 42.9375H28.875C29.3928 42.9375 29.8125 42.5178 29.8125 42V32.25C29.8125 31.7322 29.3928 31.3125 28.875 31.3125ZM27.9375 41.0625H20.0625V33.1875H27.9375V41.0625Z" fill="#7772F1"/>
<path d="M42 31.3125H32.25C31.7322 31.3125 31.3125 31.7322 31.3125 32.25V42C31.3125 42.5178 31.7322 42.9375 32.25 42.9375H42C42.5178 42.9375 42.9375 42.5178 42.9375 42V32.25C42.9375 31.7322 42.5178 31.3125 42 31.3125ZM41.0625 41.0625H33.1875V33.1875H41.0625V41.0625Z" fill="#7772F1"/>
<path d="M42.6628 9.27469C42.4884 9.10031 42.2466 9 42 9C41.7534 9 41.5116 9.10031 41.3372 9.27469C41.1628 9.44906 41.0625 9.69094 41.0625 9.9375C41.0625 10.1841 41.1628 10.4259 41.3372 10.6003C41.5116 10.7747 41.7534 10.875 42 10.875C42.2466 10.875 42.4884 10.7747 42.6628 10.6003C42.8372 10.4259 42.9375 10.1841 42.9375 9.9375C42.9375 9.69094 42.8372 9.44906 42.6628 9.27469Z" fill="#7772F1"/>
<path d="M24.8112 13.6419C24.6369 13.4675 24.3959 13.3672 24.1484 13.3672C23.9019 13.3672 23.66 13.4675 23.4856 13.6419C23.3112 13.8162 23.2109 14.0581 23.2109 14.3047C23.2109 14.5522 23.3112 14.7931 23.4856 14.9675C23.66 15.1428 23.9019 15.2422 24.1484 15.2422C24.395 15.2422 24.6369 15.1428 24.8112 14.9675C24.9856 14.7931 25.0859 14.5522 25.0859 14.3047C25.0859 14.0581 24.9856 13.8162 24.8112 13.6419Z" fill="#7772F1"/>
</g>
<defs>
<clipPath id="clip0_16317_1100">
<rect width="48" height="48" fill="white"/>
</clipPath>
</defs>
</svg>

<svg xmlns="http://www.w3.org/2000/svg" width="48" height="48" fill="none"><g fill="#7772F1" clip-path="url(#a)"><path d="M43.781 0H4.22A4.224 4.224 0 0 0 0 4.219v42.844c0 .517.42.937.938.937h46.125c.517 0 .937-.42.937-.937V4.218A4.224 4.224 0 0 0 43.781 0m2.344 46.125H1.875v-35.25h35.906a.938.938 0 1 0 0-1.875H1.875V4.219a2.346 2.346 0 0 1 2.344-2.344H43.78a2.346 2.346 0 0 1 2.344 2.344z"/><path d="M7.875 2.625a2.816 2.816 0 0 0-2.812 2.813A2.816 2.816 0 0 0 7.874 8.25a2.816 2.816 0 0 0 2.813-2.812 2.816 2.816 0 0 0-2.813-2.813m0 3.75a.939.939 0 0 1 0-1.875.939.939 0 0 1 0 1.875M15.074 2.625a2.816 2.816 0 0 0-2.812 2.813 2.816 2.816 0 0 0 2.812 2.812 2.816 2.816 0 0 0 2.813-2.812 2.816 2.816 0 0 0-2.813-2.813m0 3.75a.939.939 0 0 1 0-1.875.939.939 0 0 1 0 1.875M22.273 2.625a2.816 2.816 0 0 0-2.812 2.813 2.816 2.816 0 0 0 2.812 2.812 2.816 2.816 0 0 0 2.813-2.812 2.816 2.816 0 0 0-2.813-2.813m0 3.75a.939.939 0 0 1 0-1.875.939.939 0 0 1 0 1.875M42 13.367H28.406a.937.937 0 0 0 0 1.875h12.657v10.875H6.938V15.242h12.75a.937.937 0 1 0 0-1.875H6a.937.937 0 0 0-.937.938v12.75c0 .518.42.937.937.937h36c.518 0 .938-.42.938-.937v-12.75a.94.94 0 0 0-.938-.938M15.75 31.313H6a.937.937 0 0 0-.937.937V42c0 .518.42.938.937.938h9.75c.518 0 .938-.42.938-.938v-9.75a.937.937 0 0 0-.938-.937m-.937 9.75H6.937v-7.876h7.876zM28.875 31.313h-9.75a.937.937 0 0 0-.937.937V42c0 .518.42.938.937.938h9.75c.518 0 .938-.42.938-.938v-9.75a.937.937 0 0 0-.938-.937m-.937 9.75h-7.875v-7.876h7.875zM42 31.313h-9.75a.937.937 0 0 0-.937.937V42c0 .518.42.938.937.938H42c.518 0 .938-.42.938-.938v-9.75a.937.937 0 0 0-.938-.937m-.937 9.75h-7.876v-7.876h7.876zM42.663 9.275A.95.95 0 0 0 42 9c-.247 0-.488.1-.663.275a.94.94 0 0 0-.275.662c0 .247.1.489.275.663a.94.94 0 0 0 .663.275c.247 0 .488-.1.663-.275a.94.94 0 0 0 .275-.662c0-.247-.1-.489-.275-.663"/><path d="M24.811 13.642a.94.94 0 0 0-.663-.275c-.246 0-.488.1-.662.275a.94.94 0 0 0-.275.663.94.94 0 0 0 1.6.663.94.94 0 0 0 .275-.663c0-.247-.1-.489-.275-.663"/></g><defs><clipPath id="a"><path fill="#fff" d="M0 0h48v48H0z"/></clipPath></defs></svg>
